packages/web/public/svg/header-bg.svg

<svg fill="none" height="127" viewBox="0 0 1304 127" width="1304" xmlns="http://www.w3.org/2000/svg" xmlns:xlink="http://www.w3.org/1999/xlink"><linearGradient id="a" gradientUnits="userSpaceOnUse" x1="0" x2="0" y1="0" y2="117"><stop offset="0" stop-color="#d484f5"/><stop offset="1" stop-color="#9b59b6"/></linearGradient><linearGradient id="b" gradientUnits="userSpaceOnUse" x1="918" x2="918" y1="-16" y2="127"><stop offset="0" stop-color="#ff9d52"/><stop offset="1" stop-color="#ff6f00"/></linearGradient><mask id="c" height="117" maskUnits="userSpaceOnUse" width="1304" x="0" y="0"><path d="m0 0h1304v82c0 19.33-15.67 35-35 35h-1234c-19.3299 0-35-15.67-35-35z" fill="#fff"/></mask><path d="m0 10h1304v82c0 19.33-15.67 35-35 35h-1234c-19.3299 0-35-15.67-35-35z" fill="#71368a"/><path d="m0 0h1304v82c0 19.33-15.67 35-35 35h-1234c-19.3299 0-35-15.67-35-35z" fill="url(#a)"/><g mask="url(#c)"><path clip-rule="evenodd" d="m918 127s242.15-165.7385 341.24-139.3843c99.1 26.3541 97.74 127.0853 97.74 127.0853z" fill="url(#b)" fill-rule="evenodd"/></g></svg>

<svg width="1304" height="127" viewBox="0 0 1304 127" fill="none" xmlns="http://www.w3.org/2000/svg">
<path d="M0 10H1304V92C1304 111.33 1288.33 127 1269 127H35C15.6701 127 0 111.33 0 92V10Z" fill="#71368A"/>
<path d="M0 0H1304V82C1304 101.33 1288.33 117 1269 117H35C15.6701 117 0 101.33 0 82V0Z" fill="url(#paint0_linear_23_363)"/>
<mask id="mask0_23_363" style="mask-type:alpha" maskUnits="userSpaceOnUse" x="0" y="0" width="1304" height="117">
<path d="M0 0H1304V82C1304 101.33 1288.33 117 1269 117H35C15.6701 117 0 101.33 0 82V0Z" fill="white"/>
</mask>
<g mask="url(#mask0_23_363)">
<path fill-rule="evenodd" clip-rule="evenodd" d="M918 127C918 127 1160.15 -38.7385 1259.24 -12.3843C1358.34 13.9698 1356.98 114.701 1356.98 114.701L918 127Z" fill="url(#paint1_linear_23_363)"/>
</g>
<defs>
<linearGradient id="paint0_linear_23_363" x1="0" y1="0" x2="0" y2="117" gradientUnits="userSpaceOnUse">
<stop stop-color="#D484F5"/>
<stop offset="1" stop-color="#9B59B6"/>
</linearGradient>
<linearGradient id="paint1_linear_23_363" x1="918" y1="-16" x2="918" y2="127" gradientUnits="userSpaceOnUse">
<stop stop-color="#FF9D52"/>
<stop offset="1" stop-color="#FF6F00"/>
</linearGradient>
</defs>
</svg>
